X:1
T:Title
%%score ( 1 2 ) ( 3 4 )
L:1/8
M:3/4
K:Eb
V:1 treble nm="Choir Aahs, Staff"
V:2 treble 
V:3 bass nm="Choir Aahs, Staff-1"
V:4 bass 
V:1
 E2 E2 F2 | [EG]2 [EG]2 [FA]2 | [GB]2 e-[Ae-] [Be-][Ge] | d-[Ad] [Ge]4 | [Fc]2 [Fd]4 | %5
w: By~John~Cole,~1800 * *|||||
 [Ff]2 [Ge]2 [Fd]2 | c-[Ec] [DB]4 | [Ge]2 [GB]>[Ac] [GB]2 | [GB][FA] G>A G2 | [GB]2 [Ac]3 [GB] | %10
w: |||||
 [FA][EG] [EG]2 [DF]2 | (3EGB [Ee]4 | (3FGA [EG]>[FA] [EG]2 | [DF]2 E4 |] %14
w: ||||
V:2
 x6 | x6 | z2 .G2 z2 | .F2 z2 z2 | x6 | x6 | .F2 z2 z2 | x6 | z2 E4 | x6 | x6 | x6 | E2 z2 z2 | %13
 x6 |] %14
V:3
 z6 | z6 | [E,B,]2 [E,B,][F,B,] [G,B,][E,B,] | B,[B,,B,] [E,B,]4 | [F,=A,]2 B,4 | z2 B,4 | %6
 [F,=A,]2 [B,,B,]4 | z6 | [B,,B,]2 [E,B,]>[E,C] [E,B,]2 | [E,E]2 [A,,E]4 | C2 z2 z2 | %11
 [E,G,]2 [E,G,]>[F,A,] [G,B,]2 | [A,C]2 B,4 | .B,2 z2 z2 |] %14
V:4
 x6 | x6 | x6 | x6 | x6 | [D,B,]2 E,2 F,2 | x6 | x6 | x6 | x6 | A,,=A,, [B,,B,]4 | x6 | x6 | %13
 B,,-[B,,A,] [E,G,]4 |] %14

